X: 163
T: The Breast Knott
%R: reel
M: C|
L: 1/8
Z: 2011,2014 John Chambers <jc:trillian.mit.edu>
B: Chas & Sam Thompson "Twenty Four Country Dances for the Year 1771", London 1771, p.82
K: D
|: GB2G FA2F | Ee2d c2A2 | GB2G FA2c | (d/c/B/A/) dF E2D2 :|
|: fdfd fa2g/f/ | ecec eg2f/e/ | fdfd fa2g/f/ | dA2F E2D2 :|
% - - - - - - - - - - - - - - - - - - - - - - - - -
%%begintext align
%% Cast off 2 Cu .|. lead up the middle and cast
%% off :|. Hands 4 round at bottom .|: right and left
%% at top :|: Sett corners and turn .||. :||. lead out
%% sides :||. :||:
%%endtext
% - - - - - - - - - - - - - - - - - - - - - - - - -
